X:1
T:Todo es Gracia
T:Todo es Gracia
T:Hora Santa - Gratitud
T:MNM RCCES México
C:MNM RCCES México
%%score 1 2 3
L:1/8
Q:1/4=70
M:4/4
K:G
V:1 treble transpose=-14 nm="Tenorsaxophon" snm="T. Sax."
V:2 treble transpose=-9 nm="Altsaxophon" snm="A.sax."
V:3 tab stafflines=6 strings=E2,A2,D3,G3,B3,E4 nm="Akustische Gitarre" snm="Git."
V:1
[K:A] c2 A2 e3 z | F.A AF/{/A} B3 z/ z/ z/ |{/B} c.e e/f/ A3 z z/ c/ | d/c/ A3 B3 c | B4 z4 |] %5
V:2
[K:E] g2 e2 b3 z | c.e ec/{/e} f3 z/ z/ z/ |{/f} g.b b/c'/ e3 z z/ g/ | a/g/ e3 f3 g | f4 z4 |] %5
V:3
 [!5!G,!1!B]!3!D!2!G!1!B [!5!G,!1!d]!4!D!3!=F!4!D | %1
 [!6!C,!3!E!2!G]!1!c!2!G!3!E [!6!C,!3!^D]!2!G !1!c2 | %2
 [!5!G,!1!B]!3!D[!5!D,!1!A]!3!D [!5!E,!1!B]!4!B,!2!G!3!E | %3
 [!6!C,!2!G]!4!C!3!E!2!G !3!E!4!C!5!G,!6!C, | [!5!D,!2!F]!4!A,!3!C!1!A !2!F!3!C!4!A,!5!D, |] %5

